X: 1
T: Rockside
T: 96J 4C set (Roy Goldring - Social Dances 2002 Leeds)
P: Planxty Fanny Powers
C: O'Carolan, from John Chambers/internet
C: often played in 3/4 (waltz time)
M: 6/8
L: 1/8
R: Jig
K: A
|: E | "A"A2 E ABc|"D"d2 c B2 A|"E"G2 F EFE|"E"G2 A B2 d|"A"cBA cde|"D"f2 B B2 A|"E"GFE EFG|"A"A3 A2 :|
|: c/d/|"A"e c/d/e e c/d/e|"F#m"A2 A A2 A|"D"f d/e/f f d/e/f|"E"B2 B B2 B|"A"cde "D"fga|"E"gab efd|"A"cBA "E"BcB|"A"A3 A2 :|

